svg/UnitedNations-Flags/flag-vu.svg

<svg xmlns="http://www.w3.org/2000/svg" viewBox="0 0 256 256"><path fill="#d21034" d="m0 51.4h256v76.8h-256z"/><path fill="#009543" d="m0 128.2h256v76.8h-256z"/><path d="m0 51.4l148.97 76.8-148.97 76.8v-153.6" fill-rule="evenodd"/><path d="m0 114.46h256v27.486h-256z"/><g fill="#ffce00"><path d="m0 62.31l127.8 65.886-127.8 65.886v-131.77" fill-rule="evenodd"/><path d="m0 124.16h256v8.08h-256z"/></g><path d="m0 71.41l110.16 56.79-110.16 56.79v-113.58" fill-rule="evenodd"/><switch transform="matrix(.21345 0 0 .21345 13.474 104.76)"><g><path d="m82.67 178.67c0 0 0 26 0 41 35.667 0 105.67-27.333 105.67-115.33 0-88-74.67-104.33-97-104.33-22.333 0-91.33 16-91.33 88 0 72 67.67 78.67 81 78.67 13.333 0 63.33-12 57.667-66 0 15.333-17.333 47.667-53.667 47.667-36.33 0-59-27-59-53.667 0-26.667 22-62.33 60.33-62.33 38.33 0 66.33 33.999 66.33 68.33 0 34.33-26.999 78-69.999 78" fill="#fdce12"/><path d="m51.42 125.29l2.125 1.375c0 0 16.875-38.5 62.25-65.875-5.75 3.125-36.12 18.25-64.37 64.5z" fill="#fdce12" stroke="#fdce12"/><path d="m55.792 118.67c0 0-5.25-10.75-.625-15.5 4.625-4.75 2.5 12.625 2.5 12.625l2-2.875c0 0-3.125-13.12.375-15.875 3.5-2.75 1.75 12.625 1.75 12.625l2.125-2.75c0 0-2.25-12.75 1.125-15.12 3.375-2.375 1.25 12 1.25 12l2.5-2.875c0 0-1.875-12.12 2.25-15 4.125-2.875.5 11.5.5 11.5l2.75-3c0 0-1.25-11.125 2.25-13.625 3.5-2.5.5 10.5.5 10.5l2.5-2.625c0 0-.75-10.375 2.625-12.75 3.375-2.375.25 9.875.25 9.875l2.625-2.5c0 0-.625-10.375 3.625-12.375 4.25-2-.75 9.75-.75 9.75l2.875-2.5c0 0 .875-12.12 4.5-13.25 3.625-1.125-1.625 10.75-1.625 10.75l2.625-2.125c0 0 1.375-10.375 5.375-11.625 4-1.25-2.5 9.5-2.5 9.5l2.625-2c0 0 2.875-10.375 6.625-11.5 3.75-1.125-3.875 9.75-3.875 9.75l2.5-1.75c0 0 4.125-9.375 7.5-10 3.375-.625-3.75 7.75-3.75 7.75l3.125-1.875c0 0 5.375-9.75 7.25-6.75 1.875 3-7.5 7.375-7.5 7.375l-3.125 1.75c0 0 11.375-5.375 12.75-2.625 1.375 2.75-15.625 4.5-15.625 4.5l-2.75 1.875c0 0 11.375-3.125 10-.25-1.375 2.875-12.625 2.25-12.625 2.25l-2.625 1.875c0 0 11.375-2.75 9.875-.125-1.5 2.625-12.625 2.375-12.625 2.375l-2.75 2.25c0 0 11.125-2.875 9.5.5-1.625 3.375-14.25 3.25-14.25 3.25l-3.125 2.875c0 0 11.75-4 10.75-.875-1 3.125-14.375 4.75-14.375 4.75l-3 3c0 0 12.625-4.25 8.875-.375-3.75 3.875-12.875 4.875-12.875 4.875l-3.625 4.375c0 0 12.5-7.5 10.75-3.25-1.75 4.25-14 7.125-14 7.125l-2.5 3c0 0 11.25-6.5 10.125-2.875-1.125 3.625-13.12 7.5-13.12 7.5l-2 2.75c0 0 13.25-7.875 12.12-3.875-1.125 4-13.75 6.875-13.75 6.875l-1.625 2.5c0 0 12.25-7 12.375-3.625.125 3.375-14.375 6.75-14.375 6.75l-.25-2.875" fill="#fdce12"/><path d="m123.37 125.29l-2.125 1.375c0 0-16.875-38.5-62.25-65.875 5.75 3.125 36.12 18.25 64.37 64.5z" fill="#fdce12" stroke="#fdce12"/><path d="m119 118.67c0 0 5.25-10.75.625-15.5-4.625-4.75-2.5 12.625-2.5 12.625l-2-2.875c0 0 3.125-13.12-.375-15.875-3.5-2.75-1.75 12.625-1.75 12.625l-2.125-2.75c0 0 2.25-12.75-1.125-15.12-3.375-2.375-1.25 12-1.25 12l-2.5-2.875c0 0 1.875-12.12-2.25-15-4.125-2.875-.5 11.5-.5 11.5l-2.75-3c0 0 1.25-11.125-2.25-13.625-3.5-2.5-.5 10.5-.5 10.5l-2.5-2.625c0 0 .75-10.375-2.625-12.75-3.375-2.375-.25 9.875-.25 9.875l-2.625-2.5c0 0 .625-10.375-3.625-12.375-4.25-2 .75 9.75.75 9.75l-2.875-2.5c0 0-.875-12.12-4.5-13.25-3.625-1.125 1.625 10.75 1.625 10.75l-2.625-2.125c0 0-1.375-10.375-5.375-11.625-4-1.25 2.5 9.5 2.5 9.5l-2.625-2c0 0-2.875-10.375-6.625-11.5-3.75-1.125 3.875 9.75 3.875 9.75l-2.5-1.75c0 0-4.125-9.375-7.5-10-3.375-.625 3.75 7.75 3.75 7.75l-3.125-1.875c0 0-5.375-9.75-7.25-6.75-1.875 3 7.5 7.375 7.5 7.375l3.125 1.75c0 0-11.375-5.375-12.75-2.625-1.375 2.75 15.625 4.5 15.625 4.5l2.75 1.875c0 0-11.375-3.125-10-.25 1.375 2.875 12.625 2.25 12.625 2.25l2.625 1.875c0 0-11.375-2.75-9.875-.125 1.5 2.625 12.625 2.375 12.625 2.375l2.75 2.25c0 0-11.125-2.875-9.5.5 1.625 3.375 14.25 3.25 14.25 3.25l3.125 2.875c0 0-11.75-4-10.75-.875 1 3.125 14.375 4.75 14.375 4.75l3 3c0 0-12.625-4.25-8.875-.375 3.75 3.875 12.875 4.875 12.875 4.875l3.625 4.375c0 0-12.5-7.5-10.75-3.25 1.75 4.25 14 7.125 14 7.125l2.5 3c0 0-11.25-6.5-10.125-2.875 1.125 3.625 13.12 7.5 13.12 7.5l2 2.75c0 0-13.25-7.875-12.12-3.875 1.125 4 13.75 6.875 13.75 6.875l1.625 2.5c0 0-12.25-7-12.375-3.625-.125 3.375 14.375 6.75 14.375 6.75l.25-2.875" fill="#fdce12"/></g></switch></svg>

<?xml version="1.0" encoding="UTF-8" standalone="no"?>
<!-- Created with Inkscape (http://www.inkscape.org/) --><svg height="256" id="svg4187" inkscape:output_extension="org.inkscape.output.svg.inkscape" inkscape:version="0.46" sodipodi:docbase="D:\Kuvat\Wikipedia" sodipodi:docname="Flag_of_Vanuatu.svg" sodipodi:version="0.32" version="1.0" width="256" xmlns="http://www.w3.org/2000/svg" xmlns:cc="http://creativecommons.org/ns#" xmlns:dc="http://purl.org/dc/elements/1.1/" xmlns:i="http://ns.adobe.com/AdobeIllustrator/10.0/" xmlns:inkscape="http://www.inkscape.org/namespaces/inkscape" xmlns:rdf="http://www.w3.org/1999/02/22-rdf-syntax-ns#" xmlns:sodipodi="http://sodipodi.sourceforge.net/DTD/sodipodi-0.dtd" xmlns:svg="http://www.w3.org/2000/svg" xmlns:xlink="http://www.w3.org/1999/xlink">
  <metadata>
    <rdf:RDF xmlns:cc="http://web.resource.org/cc/" xmlns:dc="http://purl.org/dc/elements/1.1/" xmlns:rdf="http://www.w3.org/1999/02/22-rdf-syntax-ns#">
      <cc:Work rdf:about="">
        <dc:title></dc:title>
        <dc:description></dc:description>
        <dc:subject>
          <rdf:Bag>
            <rdf:li>unsorted</rdf:li>
          </rdf:Bag>
        </dc:subject>
        <dc:publisher>
          <cc:Agent rdf:about="http://www.openclipart.org/">
            <dc:title>Open Clip Art Library, Source: Wikimedia Commons, Source: Wikimedia Commons, Source: Wikimedia Commons, Source: Wikimedia Commons</dc:title>
          </cc:Agent>
        </dc:publisher>
        <dc:creator>
          <cc:Agent>
            <dc:title></dc:title>
          </cc:Agent>
        </dc:creator>
        <dc:rights>
          <cc:Agent>
            <dc:title></dc:title>
          </cc:Agent>
        </dc:rights>
        <dc:date></dc:date>
        <dc:format>image/svg+xml</dc:format>
        <dc:type rdf:resource="http://purl.org/dc/dcmitype/StillImage"/>
        <cc:license rdf:resource="http://en.wikipedia.org/wiki/Public_domain"/>
        <dc:language>en</dc:language>
      </cc:Work>
    </rdf:RDF>
  </metadata>
  <defs id="defs4189">
    <inkscape:perspective id="perspective2552" inkscape:persp3d-origin="475 : 190 : 1" inkscape:vp_x="0 : 285 : 1" inkscape:vp_y="0 : 1000 : 0" inkscape:vp_z="950 : 285 : 1" sodipodi:type="inkscape:persp3d"/>
  </defs>
  <sodipodi:namedview bordercolor="#666666" borderopacity="1.0" id="base" inkscape:current-layer="layer1" inkscape:cx="475" inkscape:cy="285" inkscape:document-units="px" inkscape:pageopacity="0.0" inkscape:pageshadow="2" inkscape:window-height="968" inkscape:window-width="1278" inkscape:window-x="0" inkscape:window-y="7" inkscape:zoom="1.2515789" pagecolor="#ffffff" showgrid="true"/>
  <g id="layer1" inkscape:groupmode="layer" inkscape:label="Layer 1">
    <rect height="76.799995" id="rect4195" style="fill:#d21034;fill-opacity:1;stroke:none;stroke-opacity:1" width="256" x="0" y="51.400002"/>
    <rect height="76.799995" id="rect5070" style="fill:#009543;fill-opacity:1;stroke:none;stroke-opacity:1" width="256" x="0" y="128.20001"/>
    <path d="M 0,51.400006 L 148.96864,128.2 L 0,204.99998 L 0,51.400006 z" id="path7810" sodipodi:nodetypes="cccc" style="fill:#000000;fill-opacity:1;fill-rule:evenodd;stroke:none;stroke-width:1px;stroke-linecap:butt;stroke-linejoin:miter;stroke-opacity:1"/>
    <rect height="27.486313" id="rect8755" style="fill:#000000;fill-opacity:1;stroke:none;stroke-opacity:1" width="256" x="0" y="114.45685"/>
    <path d="M 0,62.314225 L 127.79816,128.19987 L 0,194.0855 L 0,62.314225 z" id="path6869" sodipodi:nodetypes="cccc" style="fill:#ffce00;fill-opacity:1;fill-rule:evenodd;stroke:none;stroke-width:1px;stroke-linecap:butt;stroke-linejoin:miter;stroke-opacity:1"/>
    <rect height="8.0842094" id="rect9630" style="fill:#ffce00;fill-opacity:1;stroke:none;stroke-opacity:1" width="256" x="0" y="124.15789"/>
    <path d="M 0,71.409703 L 110.15592,128.2 L 0,184.99022 L 0,71.409703 z" id="path5945" sodipodi:nodetypes="cccc" style="fill:#000000;fill-opacity:1;fill-rule:evenodd;stroke:none;stroke-width:1px;stroke-linecap:butt;stroke-linejoin:miter;stroke-opacity:1"/>
    <switch id="switch4156" transform="matrix(0.2134528,0,0,0.2134523,13.473684,104.75579)">
      <foreignObject height="1" id="foreignObject4158" requiredExtensions="http://ns.adobe.com/AdobeIllustrator/10.0/" width="1" x="0" y="0">
        <i:pgfRef xlink:href="#adobe_illustrator_pgf"/>
      </foreignObject>
      <g i:extraneous="self" id="g4160">
        <g i:dimmedPercent="50" i:layer="yes" i:rgbTrio="#4F008000FFFF" id="Layer_1">
          <path d="M 82.667,178.667 C 82.667,178.667 82.667,204.667 82.667,219.667 C 118.334,219.667 188.334,192.334 188.334,104.334 C 188.334,16.334 113.667,0 91.333,0 C 69,0 0,16 0,88 C 0,160 67.667,166.667 81,166.667 C 94.333,166.667 144.333,154.667 138.667,100.667 C 138.667,116 121.334,148.334 85,148.334 C 48.666,148.334 26,121.333 26,94.667 C 26,68 48,32.333 86.333,32.333 C 124.666,32.333 152.666,66.332 152.666,100.666 C 152.666,135 125.667,178.667 82.667,178.667 z" i:knockout="Off" id="path4163" style="fill:#fdce12"/>
          <path d="M 51.417,125.292 L 53.542,126.667 C 53.542,126.667 70.417,88.167 115.792,60.792 C 110.042,63.917 79.667,79.042 51.417,125.292 z" i:knockout="Off" id="path4165" style="fill:#fdce12;stroke:#fdce12"/>
          <path d="M 55.792,118.667 C 55.792,118.667 50.542,107.917 55.167,103.167 C 59.792,98.417 57.667,115.792 57.667,115.792 L 59.667,112.917 C 59.667,112.917 56.542,99.792 60.042,97.042 C 63.542,94.292 61.792,109.667 61.792,109.667 L 63.917,106.917 C 63.917,106.917 61.667,94.167 65.042,91.792 C 68.417,89.417 66.292,103.792 66.292,103.792 L 68.792,100.917 C 68.792,100.917 66.917,88.792 71.042,85.917 C 75.167,83.042 71.542,97.417 71.542,97.417 L 74.292,94.417 C 74.292,94.417 73.042,83.292 76.542,80.792 C 80.042,78.292 77.042,91.292 77.042,91.292 L 79.542,88.667 C 79.542,88.667 78.792,78.292 82.167,75.917 C 85.542,73.542 82.417,85.792 82.417,85.792 L 85.042,83.292 C 85.042,83.292 84.417,72.917 88.667,70.917 C 92.917,68.917 87.917,80.667 87.917,80.667 L 90.792,78.167 C 90.792,78.167 91.667,66.042 95.292,64.917 C 98.917,63.792 93.667,75.667 93.667,75.667 L 96.292,73.542 C 96.292,73.542 97.667,63.167 101.667,61.917 C 105.667,60.667 99.167,71.417 99.167,71.417 L 101.792,69.417 C 101.792,69.417 104.667,59.042 108.417,57.917 C 112.167,56.792 104.542,67.667 104.542,67.667 L 107.042,65.917 C 107.042,65.917 111.167,56.542 114.542,55.917 C 117.917,55.292 110.792,63.667 110.792,63.667 L 113.917,61.792 C 113.917,61.792 119.292,52.042 121.167,55.042 C 123.042,58.042 113.667,62.417 113.667,62.417 L 110.542,64.167 C 110.542,64.167 121.917,58.792 123.292,61.542 C 124.667,64.292 107.667,66.042 107.667,66.042 L 104.917,67.917 C 104.917,67.917 116.292,64.792 114.917,67.667 C 113.542,70.542 102.292,69.917 102.292,69.917 L 99.667,71.792 C 99.667,71.792 111.042,69.042 109.542,71.667 C 108.042,74.292 96.917,74.042 96.917,74.042 L 94.167,76.292 C 94.167,76.292 105.292,73.417 103.667,76.792 C 102.042,80.167 89.417,80.042 89.417,80.042 L 86.292,82.917 C 86.292,82.917 98.042,78.917 97.042,82.042 C 96.042,85.167 82.667,86.792 82.667,86.792 L 79.667,89.792 C 79.667,89.792 92.292,85.542 88.542,89.417 C 84.792,93.292 75.667,94.292 75.667,94.292 L 72.042,98.667 C 72.042,98.667 84.542,91.167 82.792,95.417 C 81.042,99.667 68.792,102.542 68.792,102.542 L 66.292,105.542 C 66.292,105.542 77.542,99.042 76.417,102.667 C 75.292,106.292 63.292,110.167 63.292,110.167 L 61.292,112.917 C 61.292,112.917 74.542,105.042 73.417,109.042 C 72.292,113.042 59.667,115.917 59.667,115.917 L 58.042,118.417 C 58.042,118.417 70.292,111.417 70.417,114.792 C 70.542,118.167 56.042,121.542 56.042,121.542 L 55.792,118.667 z" i:knockout="Off" id="path4167" style="fill:#fdce12"/>
          <path d="M 123.371,125.292 L 121.246,126.667 C 121.246,126.667 104.371,88.167 58.996,60.792 C 64.746,63.917 95.121,79.042 123.371,125.292 z" i:knockout="Off" id="path4169" style="fill:#fdce12;stroke:#fdce12"/>
          <path d="M 118.996,118.667 C 118.996,118.667 124.246,107.917 119.621,103.167 C 114.996,98.417 117.121,115.792 117.121,115.792 L 115.121,112.917 C 115.121,112.917 118.246,99.792 114.746,97.042 C 111.246,94.292 112.996,109.667 112.996,109.667 L 110.871,106.917 C 110.871,106.917 113.121,94.167 109.746,91.792 C 106.371,89.417 108.496,103.792 108.496,103.792 L 105.996,100.917 C 105.996,100.917 107.871,88.792 103.746,85.917 C 99.621,83.042 103.246,97.417 103.246,97.417 L 100.496,94.417 C 100.496,94.417 101.746,83.292 98.246,80.792 C 94.746,78.292 97.746,91.292 97.746,91.292 L 95.246,88.667 C 95.246,88.667 95.996,78.292 92.621,75.917 C 89.246,73.542 92.371,85.792 92.371,85.792 L 89.746,83.292 C 89.746,83.292 90.371,72.917 86.121,70.917 C 81.871,68.917 86.871,80.667 86.871,80.667 L 83.996,78.167 C 83.996,78.167 83.121,66.042 79.496,64.917 C 75.871,63.792 81.121,75.667 81.121,75.667 L 78.496,73.542 C 78.496,73.542 77.121,63.167 73.121,61.917 C 69.121,60.667 75.621,71.417 75.621,71.417 L 72.996,69.417 C 72.996,69.417 70.121,59.042 66.371,57.917 C 62.621,56.792 70.246,67.667 70.246,67.667 L 67.746,65.917 C 67.746,65.917 63.621,56.542 60.246,55.917 C 56.871,55.292 63.996,63.667 63.996,63.667 L 60.871,61.792 C 60.871,61.792 55.496,52.042 53.621,55.042 C 51.746,58.042 61.121,62.417 61.121,62.417 L 64.246,64.167 C 64.246,64.167 52.871,58.792 51.496,61.542 C 50.121,64.292 67.121,66.042 67.121,66.042 L 69.871,67.917 C 69.871,67.917 58.496,64.792 59.871,67.667 C 61.246,70.542 72.496,69.917 72.496,69.917 L 75.121,71.792 C 75.121,71.792 63.746,69.042 65.246,71.667 C 66.746,74.292 77.871,74.042 77.871,74.042 L 80.621,76.292 C 80.621,76.292 69.496,73.417 71.121,76.792 C 72.746,80.167 85.371,80.042 85.371,80.042 L 88.496,82.917 C 88.496,82.917 76.746,78.917 77.746,82.042 C 78.746,85.167 92.121,86.792 92.121,86.792 L 95.121,89.792 C 95.121,89.792 82.496,85.542 86.246,89.417 C 89.996,93.292 99.121,94.292 99.121,94.292 L 102.746,98.667 C 102.746,98.667 90.246,91.167 91.996,95.417 C 93.746,99.667 105.996,102.542 105.996,102.542 L 108.496,105.542 C 108.496,105.542 97.246,99.042 98.371,102.667 C 99.496,106.292 111.496,110.167 111.496,110.167 L 113.496,112.917 C 113.496,112.917 100.246,105.042 101.371,109.042 C 102.496,113.042 115.121,115.917 115.121,115.917 L 116.746,118.417 C 116.746,118.417 104.496,111.417 104.371,114.792 C 104.246,118.167 118.746,121.542 118.746,121.542 L 118.996,118.667 z" i:knockout="Off" id="path4171" style="fill:#fdce12"/>
        </g>
      </g>
    </switch>
  </g>
</svg>
